src/images/svg/symbols/markets-stocks-and-indices/american-stocks/stocks-ibm.svg

<svg width="32" height="32" viewBox="0 0 32 32" fill="none" xmlns="http://www.w3.org/2000/svg">
<path d="M0 16C0 7.16344 7.16344 0 16 0C24.8366 0 32 7.16344 32 16C32 24.8366 24.8366 32 16 32C7.16344 32 0 24.8366 0 16Z" fill="#2665F5"/>
<path d="M8.6725 11H4V11.69H8.6725V11Z" fill="white"/>
<path d="M16 11.69C15.5595 11.2881 14.9971 11.0452 14.4025 11H9.25V11.69H16Z" fill="white"/>
<path d="M17.35 11H21.0625L21.3025 11.69H17.35V11Z" fill="white"/>
<path d="M28 11.69H24.0025L24.25 11H28V11.69Z" fill="white"/>
<path d="M23.545 12.98H28V12.2975H23.7925L23.545 12.98Z" fill="white"/>
<path d="M21.76 12.98H17.35V12.2975H21.52L21.76 12.98Z" fill="white"/>
<path d="M16.72 12.98C16.7022 12.7416 16.6358 12.5093 16.525 12.2975H9.25V12.98H16.72Z" fill="white"/>
<path d="M8.6725 12.2975H4V12.98H8.6725V12.2975Z" fill="white"/>
<path d="M23.335 13.5875L23.095 14.2775H26.68V13.5875H23.335Z" fill="white"/>
<path d="M21.9775 13.5875L22.2175 14.2775H18.6625V13.5875H21.9775Z" fill="white"/>
<path d="M16.6525 14.285C16.7236 14.0621 16.7566 13.8288 16.75 13.595H14.6425V14.285H16.6525Z" fill="white"/>
<path d="M7.31499 13.595H5.30499V14.2775H7.31499V13.595Z" fill="white"/>
<path d="M10.63 13.5875H12.6325V14.2775H10.63V13.5875Z" fill="white"/>
<path d="M20.6425 15.02V15.545H18.6625V14.855H22.4275L22.66 15.5L22.885 14.855H26.68V15.545H24.715V15.02L24.535 15.545H20.8225L20.6425 15.02Z" fill="white"/>
<path d="M16.3825 14.855H10.63V15.545H15.8125C16.0407 15.3494 16.2335 15.116 16.3825 14.855Z" fill="white"/>
<path d="M7.31499 14.855H5.30499V15.5375H7.31499V14.855Z" fill="white"/>
<path d="M24.715 16.1525H26.68V16.835H24.715V16.1525Z" fill="white"/>
<path d="M20.6425 16.1525H18.6625V16.835H20.6425V16.1525Z" fill="white"/>
<path d="M24.0775 16.835C24.085 16.835 24.3175 16.1525 24.3175 16.1525H21.0025L21.25 16.835H24.0775Z" fill="white"/>
<path d="M10.63 16.1525H15.805C16.0387 16.3524 16.2455 16.5818 16.42 16.835H10.63V16.1525Z" fill="white"/>
<path d="M7.30749 16.1525V16.835H5.30499V16.1525H7.30749Z" fill="white"/>
<path d="M26.68 17.4425H24.715V18.125H26.68V17.4425Z" fill="white"/>
<path d="M18.6625 17.4425H20.635V18.125H18.6625V17.4425Z" fill="white"/>
<path d="M23.62 18.1325C23.62 18.1325 23.86 17.4425 23.8675 17.4425H21.4825L21.73 18.125L23.62 18.1325Z" fill="white"/>
<path d="M10.63 17.4425V18.125H12.6625V17.4425H10.63Z" fill="white"/>
<path d="M16.705 17.4425C16.7862 17.6636 16.8293 17.8969 16.8325 18.1325H14.68V17.4425H16.705Z" fill="white"/>
<path d="M5.30499 17.4425H7.30749V18.125H5.30499V17.4425Z" fill="white"/>
<path d="M28 18.71H24.715V19.3925H28V18.71Z" fill="white"/>
<path d="M17.35 18.71H20.6425V19.3925H17.35V18.71Z" fill="white"/>
<path d="M23.1775 19.3925H22.1725L21.9325 18.71H23.41L23.1775 19.3925Z" fill="white"/>
<path d="M4 19.3925V18.71H8.665V19.3925H4Z" fill="white"/>
<path d="M16.75 18.71C16.7201 18.9557 16.63 19.1901 16.4875 19.3925H9.25V18.71H16.75Z" fill="white"/>
<path d="M22.63 20.69H22.72L22.96 20H22.3975L22.63 20.69Z" fill="white"/>
<path d="M28 20H24.715V20.69H28V20Z" fill="white"/>
<path d="M9.25 20V20.69H14.26C14.9068 20.6904 15.5293 20.4436 16 20H9.25Z" fill="white"/>
<path d="M20.6425 20H17.35V20.69H20.6425V20Z" fill="white"/>
<path d="M8.665 20.69V20.0075L4 20V20.69H8.665Z" fill="white"/>
</svg>

<svg width="32" height="32" fill="none" xmlns="http://www.w3.org/2000/svg"><path d="M0 16C0 7.163 7.163 0 16 0s16 7.163 16 16-7.163 16-16 16S0 24.837 0 16Z" fill="#2665F5"/><path d="M8.672 11H4v.69h4.672V11ZM16 11.69a2.67 2.67 0 0 0-1.598-.69H9.25v.69H16ZM17.35 11h3.712l.24.69H17.35V11ZM28 11.69h-3.997l.247-.69H28v.69ZM23.545 12.98H28v-.683h-4.207l-.248.683ZM21.76 12.98h-4.41v-.683h4.17l.24.683ZM16.72 12.98a1.754 1.754 0 0 0-.195-.683H9.25v.683h7.47ZM8.672 12.297H4v.683h4.672v-.683ZM23.335 13.588l-.24.69h3.585v-.69h-3.345ZM21.977 13.588l.24.69h-3.554v-.69h3.314ZM16.652 14.285c.072-.223.105-.456.098-.69h-2.107v.69h2.01ZM7.315 13.595h-2.01v.682h2.01v-.682ZM10.63 13.588h2.002v.69H10.63v-.69ZM20.642 15.02v.525h-1.98v-.69h3.765l.233.645.225-.645h3.795v.69h-1.965v-.525l-.18.525h-3.712l-.18-.525ZM16.383 14.855H10.63v.69h5.182c.229-.196.421-.429.57-.69ZM7.315 14.855h-2.01v.682h2.01v-.682ZM24.715 16.152h1.965v.683h-1.965v-.683ZM20.642 16.152h-1.98v.683h1.98v-.683ZM24.078 16.835c.007 0 .24-.683.24-.683h-3.316l.248.683h2.828ZM10.63 16.152h5.175c.234.2.44.43.615.683h-5.79v-.683ZM7.307 16.152v.683H5.305v-.683h2.002ZM26.68 17.442h-1.965v.683h1.965v-.683ZM18.663 17.442h1.972v.683h-1.973v-.683ZM23.62 18.133s.24-.69.247-.69h-2.384l.247.682 1.89.008ZM10.63 17.442v.683h2.032v-.683H10.63ZM16.705 17.442c.081.222.124.455.128.69H14.68v-.69h2.025ZM5.305 17.442h2.002v.683H5.305v-.683ZM28 18.71h-3.285v.682H28v-.682ZM17.35 18.71h3.292v.682H17.35v-.682ZM23.177 19.392h-1.005l-.24-.682h1.478l-.233.682ZM4 19.392v-.682h4.665v.682H4ZM16.75 18.71a1.5 1.5 0 0 1-.262.682H9.25v-.682h7.5ZM22.63 20.69h.09l.24-.69h-.563l.233.69ZM28 20h-3.285v.69H28V20ZM9.25 20v.69h5.01c.647 0 1.27-.246 1.74-.69H9.25ZM20.642 20H17.35v.69h3.292V20ZM8.665 20.69v-.683L4 20v.69h4.665Z" fill="#fff"/></svg>
